!!!COM:	la Rue, Pierre de
!!!CDT:	~1452///-1518/11/20
!!!OPR:	Missa Puer natus est nobis
!!!ONM:	5
!!!OTL:	Agnus Dei
!!!AGN:	Mass; Agnus Dei
!!!SCT:	Rue1025e
!!!SCA:	Rue1025e
!!!voices-OPR:	4
!!!voices:	4
**kern	**kern	**kern	**kern
*Ivox	*Ivox	*Ivox	*Ivox
*I"Bassus	*I"Tenor	*I"Contra	*I"Discantus
*I'B	*I'T	*I'C	*I'D
*staff4	*staff3	*staff2	*staff1
*>[A,B]	*>[A,B]	*>[A,B]	*>[A,B]
*>A	*>A	*>A	*>A
*clefF4	*clefGv2	*clefGv2	*clefG2
*k[b-]	*k[b-]	*k[b-]	*k[b-]
*M3/1	*M3/1	*M3/1	*M3/1
*met(O)	*met(O)	*met(O)	*met(O)
!!section: Agnus Dei I
!!!OMD: Agnus Dei I
=1-	=1-	=1-	=1-
0G	[0.G	0G	[0.g
1d	.	1G	.
=2	=2	=2	=2
2d\	0G]	1d	1g]
1B-	.	.	.
.	.	1d	0dd
4A\	.	.	.
4G\	.	.	.
2F\	1d	1r	.
2G\	.	.	.
=3	=3	=3	=3
0D	0d	0f	2r
.	.	.	2.dd\
.	.	.	4cc\
.	.	.	4a/
.	.	.	4b-\
1C	2.e\	1g	2.cc\
.	4d\	.	4b-\
=4	=4	=4	=4
2C/	2e\	2a\	2cc\
1BB-	2.f\	2.b-\	1dd
.	4e\	4a\	.
2C/	2e\	4g\	2.cc\
.	.	4f\	.
1G	1d	1g	.
.	.	.	4bni\
.	.	.	2bni\
=5	=5	=5	=5
2C/	[0.c	2e\	0.cc
2F\	.	2a\	.
2C/	.	2g\	.
2.F\	.	1a	.
4G\	.	.	.
4A\	.	4g\	.
4B-\	.	4f\	.
=6	=6	=6	=6
2c\	0.c]	2e\	1r
1F	.	1a	.
.	.	.	1r
2G\	.	1g	.
1A	.	.	1cc
.	.	2f#i\	.
=7	=7	=7	=7
1G	[0.d	1g	1b-
2r	.	1r	2a/
1G	.	.	1b-
.	.	1G	.
4F\	.	.	4a/
4E\	.	.	4g/
=8	=8	=8	=8
2D\	0.d]	2A/	2f/
2G\	.	2B-\	2b-\
4F\	.	2A/	2cc\
4E\	.	.	.
4D\	.	2F/	2.dd\
4C/	.	.	.
1BB-	.	1B-	.
.	.	.	4ee-i\
.	.	.	2ff\
=9	=9	=9	=9
0.C	1c	0G	1.ee-i
.	0e-i	.	.
.	.	.	2dd\
.	.	[1g	1cc
=10	=10	=10	=10
0.G	0.d	0.g]	2b-\
.	.	.	2.dd\
.	.	.	4cc\
.	.	.	2dd\
.	.	.	1b-
=11	=11	=11	=11
0D	[0.d	0f	2a/
.	.	.	2.dd\
.	.	.	4cc\
.	.	.	4b-\
.	.	.	4a/
1G	.	1g	2b-\
.	.	.	4a/
.	.	.	4g/
=12	=12	=12	=12
1D	0.d]	2a\	2f/
.	.	1f	1dd
1r	.	.	.
.	.	2e\	2cc\
1D	.	2f\	2a/
.	.	2d\	2b-\
=13	=13	=13	=13
2.A\	0.r	1.c	2.cc\
4F\	.	.	4b-\
2F\	.	.	4a/
.	.	.	4g/
2G\	.	2B-\	1g
1D	.	1A	.
.	.	.	2f#i/
=14	=14	=14	=14
2r	0.G	0G	0g
2.B-\	.	.	.
4G\	.	.	.
4B-\	.	.	.
4c\	.	.	.
2d\	.	1r	2r
2G\	.	.	[2b-\
=15	=15	=15	=15
2r	0.d	2r	4b-\]
.	.	.	4g/
1G	.	2.B-\	4b-\
.	.	.	4cc\
.	.	.	2dd\
.	.	4G/	.
2G\	.	4B-\	2g/
.	.	4c\	.
2D\	.	2d\	2r
[2F\	.	2A/	[2a/
=16	=16	=16	=16
4F\]	1d	0A	4a/]
4D\	.	.	4f/
4F\	.	.	4a/
4G\	.	.	4b-\
2C/	2e-i\	.	2cc\
2D\	1d	.	2f/
1E-i	.	1G	1g
.	2c\	.	.
=17	=17	=17	=17
0D	0.d	1A	0f
.	.	2A/	.
.	.	1F	.
1D	.	.	[1a
.	.	[2f\	.
=18	=18	=18	=18
1.F	0.c	2f\]	1a]
.	.	4e\	.
.	.	4d\	.
.	.	2c\	0cc
4E\	.	2f\	.
4D\	.	.	.
2C/	.	2e\	.
2F\	.	[2f\	.
=19	=19	=19	=19
2BB-/	0.B-	2f\]	1dd
2.B-\	.	2d\	.
.	.	0d	2dd\
4A\	.	.	.
2.G\	.	.	2.b-\
4F\	.	.	4a/
4D\	.	.	4f/
4E\	.	.	4g/
=20	=20	=20	=20
1F	0A	1c	4a/
.	.	.	4b-\
.	.	.	1cc
1F	.	0f	.
.	.	.	2b-\
1F	1r	.	1a
=21	=21	=21	=21
1C	0.c	1e	1g
2C/	.	2e\	2g/
2.F\	.	1f	2.a/
4E\	.	.	4b-\
2C/	.	[2g\	[2cc\
=22	=22	=22	=22
1.G	0d	2g\]	2cc\]
.	.	2.g\	1b-
.	.	4f\	.
2F\	.	2d\	2a/
2G\	1d	2r	2b-\
2B-\	.	2d\	2g/
=23	=23	=23	=23
2A\	1c	2e\	1a
1F	.	2A/	.
.	2r	0A	2r
4E\	2.f\	.	2.dd\
4D\	.	.	.
1A	.	.	.
.	4g\	.	4b-\
.	2e\	.	2cc\
=24	=24	=24	=24
2D\	2d\	1r	1.dd
2.G\	2.B-\	.	.
.	.	1r	.
4E\	4c\	.	.
2F\	2A/	.	2cc\
2G\	2G/	2r	2b-\
2D\	[2d\	[2A/	2a/
=25	=25	=25	=25
1E-i	4d\]	4A/]	1g
.	4e-i\	4B-\	.
.	2c\	2G/	.
2D\	2d\	2A/	1f
2.F\	2.A/	2.d\	.
.	.	.	2r
4G\	4B-\	4B-\	.
2E-\	2G/	2c\	2g/
=26	=26	=26	=26
1D	0A	1d	1f
2D\	.	2r	2f/
2.F\	.	[2d\	2.a/
.	2r	4d\]	.
4G\	.	4B-\	4b-\
2E\	2G/	2c\	2g/
=27	=27	=27	=27
2D\	2A/	2d\	1f
2.F\	2.d\	[2A/	.
.	.	4A/]	2f/
4G\	4e-i\	4B-\	.
2E\	2c\	2G/	2g/
2D\	2d\	2A/	2f/
[2G\	2G/	2B-\	[2b-\
=28	=28	=28	=28
2G\]	2.B-\	2d\	4b-\]
.	.	.	4a/
2C/	.	2e-\	1g
.	4c\	.	.
1D	1A	1d	.
.	.	.	2f#i/
1Gl	1Gl	1dl	1gl
!!LO:LB:i:g=z
=29||	=29||	=29||	=29||
*>B	*>B	*>B	*>B
*clefF4	*clefGv2	*clefGv2	*clefG2
*k[b-]	*k[b-]	*k[b-]	*k[b-]
*M2/1	*M2/1	*M2/1	*M2/1
*met(C|)	*met(C|)	*met(C|)	*met(C|)
!!section: Agnus Dei II
!!!OMD: Agnus Dei II
0D	0r	1d	0r
.	.	2d\	.
.	.	[2f\	.
=30	=30	=30	=30
0A	0r	2f\]	0r
.	.	4e\	.
.	.	4d\	.
.	.	2e\	.
.	.	2A/	.
=31	=31	=31	=31
0A	0r	2.c\	0r
.	.	4d\	.
.	.	2e\	.
.	.	2f\	.
=32	=32	=32	=32
0r	0G	2.g\	1g
.	.	4f\	.
.	.	1d	2g/
.	.	.	[2b-\
=33	=33	=33	=33
0r	0d	0r	2b-\]
.	.	.	4a/
.	.	.	4g/
.	.	.	2a/
.	.	.	2d/
=34	=34	=34	=34
0r	0d	0r	2.f/
.	.	.	4g/
.	.	.	2a/
.	.	.	2b-\
=35	=35	=35	=35
[0A	0r	1e	[0cc
.	.	2e\	.
.	.	[2f\	.
=36	=36	=36	=36
0A]	0r	4f\]	0cc]
.	.	4e\	.
.	.	2.c\	.
.	.	4d\	.
.	.	4e\	.
.	.	4f\	.
=37	=37	=37	=37
0B-	0r	2.d\	0r
.	.	4e\	.
.	.	2f\	.
.	.	[2g\	.
=38	=38	=38	=38
0A	0r	2g\]	0a
.	.	4f#i\	.
.	.	4e\	.
.	.	1f#i	.
=39	=39	=39	=39
0G	[0d	1g	[0b-
.	.	2r	.
.	.	2G/	.
=40	=40	=40	=40
0G	0d_	2.B-\	0b-]
.	.	4c\	.
.	.	2d\	.
.	.	2e\	.
=41	=41	=41	=41
0r	0d]	2f\	0a
.	.	1g	.
.	.	2f#i\	.
=42	=42	=42	=42
0r	[0e	0g	1g
.	.	.	2r
.	.	.	2c/
=43	=43	=43	=43
0r	0e]	0c	2.e/
.	.	.	4f/
.	.	.	2g/
.	.	.	2a/
=44	=44	=44	=44
0r	0d	0r	2b-\
.	.	.	2.cc\
.	.	.	4bni\
.	.	.	2bni\
=45	=45	=45	=45
[0A	0c	0e	0cc
=46	=46	=46	=46
0A]	0r	1e	1cc
.	.	1f	1cc
=47	=47	=47	=47
0G	[0d	1.g	1.b-
.	.	4f\	4a/
.	.	4e\	4g/
=48	=48	=48	=48
0B-	0d]	1d	1f
.	.	1G	1g
=49	=49	=49	=49
1A	0c	2.c\	0a
.	.	4d\	.
1A	.	2e\	.
.	.	2f\	.
=50	=50	=50	=50
0r	0e	1g	0g
.	.	[1G	.
=51	=51	=51	=51
0r	1d	1G]	0b-
.	1d	1G	.
=52	=52	=52	=52
0D	0r	1.d	1a
.	.	.	[1a
.	.	4c\	.
.	.	4B-\	.
=53	=53	=53	=53
1A	0r	2c\	2a/]
.	.	1d	4g/
.	.	.	4f/
1A	.	.	1e
.	.	2c#i\	.
=54	=54	=54	=54
1.B-	0r	2.d\	1d
.	.	4e\	.
.	.	2f\	1dd
4A\	.	[2g\	.
4G\	.	.	.
=55	=55	=55	=55
1A	0r	2g\]	1cc
.	.	2f\	.
[1G	.	2g\	[1b-
.	.	4f\	.
.	.	4e\	.
=56	=56	=56	=56
1G]	0G	1d	1b-]
1E	.	1e	1g
=57	=57	=57	=57
1.F	1d	1.A	1a
.	1d	.	1f
4E\	.	4G/	.
4D\	.	4F/	.
=58	=58	=58	=58
0C	1.e	0c	0g
.	4d\	.	.
.	4c\	.	.
=59	=59	=59	=59
0r	1d	2r	2f/
.	.	2.F/	2.a/
.	[1c	.	.
.	.	4G/	4b-\
.	.	2A/	2cc\
=60	=60	=60	=60
0r	1c]	2F/	2a/
.	.	2.A/	2.cc\
.	1A	.	.
.	.	4B-\	4b-\
.	.	2c\	[2a/
=61	=61	=61	=61
0G	0B-	0d	2a/]
.	.	.	4g/
.	.	.	4f/
.	.	.	1g
=62	=62	=62	=62
1D	0A	1.f	1a
[1F	.	.	2a/
.	.	4e\	[2cc\
.	.	4d\	.
=63	=63	=63	=63
2F\]	0r	2c\	2cc\]
2A\	.	1f	2cc\
1G	.	.	1b-
.	.	2e\	.
=64	=64	=64	=64
[0F	[0c	[0f	[0a
=65	=65	=65	=65
0F]	0c]	0f]	0a]
=66	=66	=66	=66
0C	0c	1.e-i	[0g
.	.	4d\	.
.	.	4c\	.
=67	=67	=67	=67
0G	[0d	0B-	0g]
=68	=68	=68	=68
0D	0d]	[0A	0f
=69	=69	=69	=69
1r	0c	0A]	[0e
1A	.	.	.
=70	=70	=70	=70
2G\	0r	1r	0e]
2.A\	.	.	.
.	.	1A	.
4B-\	.	.	.
2c\	.	.	.
=71	=71	=71	=71
2B-\	0r	2G/	0r
2c\	.	2.A/	.
1A	.	.	.
.	.	4B-\	.
.	.	2c\	.
=72	=72	=72	=72
2G\	0r	2B-\	0r
2A\	.	2c\	.
2F\	.	2A/	.
[2G\	.	[2B-\	.
=73	=73	=73	=73
4G\]	1r	4B-\]	0r
4A\	.	4G/	.
4B-\	.	1g	.
4c\	.	.	.
1A	1c	.	.
.	.	2f#i\	.
=74	=74	=74	=74
0G	[0d	0g	[0b-
=75	=75	=75	=75
0B-	0d]	[0f	0b-]
=76	=76	=76	=76
[0F	[0c	0f_	[0a
=77	=77	=77	=77
0F]	0c_	0f]	0a]
=78	=78	=78	=78
0C	0c]	0e	[0g
=79	=79	=79	=79
0E	0G	0c	0g]
=80	=80	=80	=80
1D	[0A	0d	0f
1D	.	.	.
=81	=81	=81	=81
1r	0A]	1r	1r
1D	.	1d	1f
=82	=82	=82	=82
1F	0r	1c	1f
2E\	.	4c\	2g/
.	.	4B-\	.
[2F\	.	4A/	[2a/
.	.	4G/	.
=83	=83	=83	=83
2F\]	1r	2F/	2a/]
4E\	.	1f	2b-\
4D\	.	.	.
1C	1A	.	1cc
.	.	2e\	.
=84	=84	=84	=84
1BB-	1B-	2d\	2.dd\
.	.	4c\	.
.	.	4B-\	4cc\
1F	2c\	1A	2cc\
.	[2d\	.	2a/
=85	=85	=85	=85
1G	2d\]	1r	1b-
.	2e\	.	.
1D	1f	1d	1a
=86	=86	=86	=86
0E-	0g	1.B-	1g
.	.	.	[1b-
.	.	2c\	.
=87	=87	=87	=87
[0BB-	0f	[0d	2b-\]
.	.	.	4a/
.	.	.	4g/
.	.	.	1f
=88	=88	=88	=88
0BB-]	1r	0d]	1r
.	1F	.	1b-
=89	=89	=89	=89
0r	2G/	0r	2g/
.	1A	.	1cc
.	2B-\	.	4b-\
.	.	.	4a/
=90	=90	=90	=90
1r	1c	1r	1g
1D	1d	1A	1f
=91	=91	=91	=91
2E\	2r	2G/	2g/
1F	2c\	1c	1a
.	1d	.	.
2G\	.	2B-\	2b-\
=92	=92	=92	=92
1A	2r	2A/	1cc
.	2c\	2F/	.
1B-	1d	[1f	2f/
.	.	.	[2b-\
=93	=93	=93	=93
1F	1c	2f\]	2b-\]
.	.	4e\	2a/
.	.	4d\	.
1G	1B-	1d	2b-\
.	.	.	[2g/
=94	=94	=94	=94
0D	0A	1.d	2g/]
.	.	.	4f#i/
.	.	.	4e/
.	.	.	1f#i
.	.	4c\	.
.	.	4B-\	.
=95	=95	=95	=95
0Gl	0Gl	0B-l	0gl
==	==	==	==
*-	*-	*-	*-
!!!RDF**kern: l=long note in original notation
!!!RDF**kern: i=editorial accidental
!!!RDF**kern: V=start of tuplet marker
!!!RDF**kern: Z=end of tuplet marker
!!!ENC:	Chris Gage 05-11-2013
!!!END:	2013/08/01/
!!!EED:	Jesse Rodin
!!!EEV:	2013/08/02/
!!!ONB:	Translated from MusicXML and edited on 2013/08/02/ by Craig Sapp
!!muse2ps: T^@{OPR}^u^@{ONM}{. }@{OTL}^C^@{COM}^i2I150v85,85,85,150Q16
